X:1
T:Old 117th, 88.88.88
T:Old 117th, 88.88.88
T:Genevan Psalter, 1551
T:Public Domain Courtesy of the Cyber Hymnal™
C:Genevan Psalter, 1551
Z:Public Domain
Z:Courtesy of the Cyber Hymnal™
%%score ( 1 2 ) ( 3 4 )
L:1/8
Q:1/4=115
M:4/4
K:D
V:1 treble 
V:2 treble 
V:3 bass 
V:4 bass 
V:1
 [EA]4 [Dd]2 [Gd]2 | [Ac]2 A2 [GB]2 [Ec]2 | [Fd]4 [Fd]4 | [Fc]2 [B,B]2 [CA]2 [EG]2 | F4 D2 z2 | %5
 D8 | [A,D]4 [A,E]2 [A,F]2 | [EG]2 [CA]2 [FA]2 [E^G]2 | [EA]4 [EA]4 | [GB]2 [GB]2 [Fd]2 [Fd]2 | %10
 [Ec]4 [^GB]4 | A4 [EA]4 | [EG]2 F2 [GB]2 [FA]2 | [DG]4 [DF]4 | [CE]4 [CE]4 | %15
 [DF]2 [DG]2 [EA]2 [EB]2 | [CB]2 A4 z2 z x4 | [CA]8 |] %18
V:2
 x8 | x2 A2 x4 | x8 | x8 | (B,2 E4 C2) | D8 | x8 | x8 | x8 | x8 | x8 | A4 x4 | x2 F2 x4 | x8 | x8 | %15
 x8 | x2 (D2 E6 ^G2 D) | x8 |] %18
V:3
 [A,C]4 [B,D]2 [B,D]2 | [A,E]2 [F,D]2 [G,D]2 A,2 | [D,A,]4 [B,,B,]4 | [F,A,]2 G,2 [F,A,]2 [E,B,]2 | %4
 [D,F,]4 [A,,A,]4 | [D,F,]8 | [D,F,]4 [C,E,]2 D,2 | [E,B,]2 [F,A,]2 [D,D]2 [E,B,]2 | %8
 [A,,C]4 [A,C]4 | [G,D]2 [E,E]2 [D,A,]2 [D,A,]2 | [A,,A,]4 [E,B,]4 | [A,,C]4 [A,,C]4 | %12
 [E,B,]2 [D,D]2 [G,D]2 [D,D]2 | [G,,B,]4 [D,A,]4 | [A,,A,]4 [A,,A,]4 | %15
 [D,A,]2 [B,,B,]2 [A,,C]2 [E,^G,]2 | (F,2 A,2) [E,B,]4 x5 | [A,,A,]8 |] %18
V:4
 x8 | x6 A,2 | x8 | x2 G,2 x4 | x8 | x8 | x6 D,2 | x8 | x8 | x8 | x8 | x8 | x8 | x8 | x8 | x8 | %16
 F,4 x9 | x8 |] %18

